X:1
T:New Haven, 66.46.66.4
T:Thomas Hastings, 1832
T:New Haven, 66.46.66.4
T:Public Domain
C:Thomas Hastings, 1832
Z:Public Domain
%%score ( 1 2 ) ( 3 4 )
L:1/8
M:4/4
K:G
V:1 treble 
V:2 treble 
V:3 bass 
V:4 bass 
V:1
 [DG]4 [DG]2 [DG]2 | [DB]3 [DA] [DG]4 | [FA]4 [FA]2 [FA]2 | [Ac]3 [GB] [FA]4 | [GB]4 [G^c]2 [Gc]2 | %5
 [Fd]8 | [FA]4 [FA]2 [FA]2 | [Ac]3 [GB] [FA]4 | [GB]4 [GB]2 [GB]2 | [Bd]3 [Ac] [GB]4 | %10
 [Ge]4 [Ge]2 [Ge]2 | [Gd]3 [Gc] [GB]4 | [FA]4 [GB]2 [FA]2 | G8 |] %14
V:2
 x8 | x8 | x8 | x8 | x8 | x8 | x8 | x8 | x8 | x8 | x8 | x8 | x8 | G8 |] %14
V:3
 [G,B,]4 [G,B,]2 [G,B,]2 | [G,D]3 [G,C] [G,B,]4 | [D,D]4 [D,D]2 [D,D]2 | [D,D]3 [D,D] [D,D]4 | %4
 [G,D]4 A,2 A,2 | [D,A,]8 | [D,D]4 [D,D]2 [D,D]2 | [D,D]3 [D,D] [D,D]4 | [G,D]4 [G,D]2 [G,D]2 | %9
 [G,B,]3 [G,C] [G,D]4 | [C,C]4 [C,C]2 [C,C]2 | [G,B,]3 [G,E] [G,D]4 | [D,D]4 [D,D]2 [D,C]2 | %13
 [G,,B,]8 |] %14
V:4
 x8 | x8 | x8 | x8 | x4 A,2 A,2 | x8 | x8 | x8 | x8 | x8 | x8 | x8 | x8 | x8 |] %14

